svg/car.svg

<?xml version="1.0" encoding="UTF-8" standalone="no"?>
<svg
   xmlns:dc="http://purl.org/dc/elements/1.1/"
   xmlns:cc="http://creativecommons.org/ns#"
   xmlns:rdf="http://www.w3.org/1999/02/22-rdf-syntax-ns#"
   xmlns:svg="http://www.w3.org/2000/svg"
   xmlns="http://www.w3.org/2000/svg"
   xmlns:sodipodi="http://sodipodi.sourceforge.net/DTD/sodipodi-0.dtd"
   xmlns:inkscape="http://www.inkscape.org/namespaces/inkscape"
   class="ionicon"
   viewBox="0 0 512 512"
   version="1.1"
   id="svg6"
   sodipodi:docname="car.svg"
   inkscape:version="1.0.2 (e86c8708, 2021-01-15)">
  <metadata
     id="metadata12">
    <rdf:RDF>
      <cc:Work
         rdf:about="">
        <dc:format>image/svg+xml</dc:format>
        <dc:type
           rdf:resource="http://purl.org/dc/dcmitype/StillImage" />
      </cc:Work>
    </rdf:RDF>
  </metadata>
  <defs
     id="defs10" />
  <sodipodi:namedview
     pagecolor="#ffffff"
     bordercolor="#666666"
     borderopacity="1"
     objecttolerance="10"
     gridtolerance="10"
     guidetolerance="10"
     inkscape:pageopacity="0"
     inkscape:pageshadow="2"
     inkscape:window-width="689"
     inkscape:window-height="480"
     id="namedview8"
     showgrid="false"
     inkscape:zoom="1.3027344"
     inkscape:cx="256"
     inkscape:cy="256"
     inkscape:window-x="44"
     inkscape:window-y="25"
     inkscape:window-maximized="0"
     inkscape:current-layer="svg6" />
  <title
     id="title2">Car</title>
  <path
     style="color:#000000;font-style:normal;font-variant:normal;font-weight:normal;font-stretch:normal;font-size:medium;line-height:normal;font-family:sans-serif;font-variant-ligatures:normal;font-variant-position:normal;font-variant-caps:normal;font-variant-numeric:normal;font-variant-alternates:normal;font-variant-east-asian:normal;font-feature-settings:normal;font-variation-settings:normal;text-indent:0;text-align:start;text-decoration:none;text-decoration-line:none;text-decoration-style:solid;text-decoration-color:#000000;letter-spacing:normal;word-spacing:normal;text-transform:none;writing-mode:lr-tb;direction:ltr;text-orientation:mixed;dominant-baseline:auto;baseline-shift:baseline;text-anchor:start;white-space:normal;shape-padding:0;shape-margin:0;inline-size:0;clip-rule:nonzero;display:inline;overflow:visible;visibility:visible;isolation:auto;mix-blend-mode:normal;color-interpolation:sRGB;color-interpolation-filters:linearRGB;solid-color:#000000;solid-opacity:1;vector-effect:none;fill:#000000;fill-opacity:1;fill-rule:nonzero;stroke-width:1;stroke-linecap:butt;stroke-linejoin:miter;stroke-miterlimit:4;stroke-dasharray:none;stroke-dashoffset:0;stroke-opacity:1;color-rendering:auto;image-rendering:auto;shape-rendering:auto;text-rendering:auto;enable-background:accumulate;stop-color:#000000;stop-opacity:1;stroke:none;opacity:1"
     d="m 447.68,220.78 c -0.22831,-1.05784 -0.56336,-2.08979 -1,-3.08 L 408.9,129.54 C 400.19,109.17 379,96 354.89,96 H 157.11 c -24.09,0 -45.3,13.17 -54,33.54 L 65.29,217.7 c -0.859528,1.98867 -1.298716,4.13354 -1.29,6.3 v 176 c 0,8.83656 7.163444,16 16,16 h 32 c 8.83656,0 16,-7.16344 16,-16 v -16 h 256 v 16 c 0,8.83656 7.16344,16 16,16 h 32 c 8.83656,0 16,-7.16344 16,-16 V 224 c 0.001,-1.08134 -0.1058,-2.16009 -0.32,-3.22 z M 144,320 c -12.94278,0 -24.61122,-7.79659 -29.56392,-19.75395 -4.9527,-11.95732 -2.21423,-25.72043 6.93765,-34.87232 9.15189,-9.15188 22.915,-11.89035 34.87232,-6.93765 C 168.20341,263.38878 176,275.05722 176,288 c 0,17.67311 -14.32689,32 -32,32 z m 224,0 c -12.94278,0 -24.61122,-7.79659 -29.56392,-19.75395 -4.9527,-11.95732 -2.21423,-25.72043 6.93765,-34.87232 9.15189,-9.15188 22.915,-11.89035 34.87232,-6.93765 C 392.20341,263.38878 400,275.05722 400,288 c 0,17.67311 -14.32689,32 -32,32 z M 104.26,208 132.49,142.15 C 136.11,133.69 146,128 157.11,128 h 197.78 c 11.1,0 21,5.69 24.62,14.15 L 407.74,208 Z"
     id="path4" />
</svg>

<svg xmlns="http://www.w3.org/2000/svg" width="512" height="512" viewBox="0 0 512 512"><title>ionicons-v5-d</title><path d="M447.68,220.78a16,16,0,0,0-1-3.08l-37.78-88.16C400.19,109.17,379,96,354.89,96H157.11c-24.09,0-45.3,13.17-54,33.54L65.29,217.7A15.72,15.72,0,0,0,64,224V400a16,16,0,0,0,16,16h32a16,16,0,0,0,16-16V384H384v16a16,16,0,0,0,16,16h32a16,16,0,0,0,16-16V224A16.15,16.15,0,0,0,447.68,220.78ZM144,320a32,32,0,1,1,32-32A32,32,0,0,1,144,320Zm224,0a32,32,0,1,1,32-32A32,32,0,0,1,368,320ZM104.26,208l28.23-65.85C136.11,133.69,146,128,157.11,128H354.89c11.1,0,21,5.69,24.62,14.15L407.74,208Z"/></svg>
